X:1
T:Nain, 64.64
T:Lowell Mason, 1831
T:Nain, 64.64
T:Public Domain
C:Lowell Mason, 1831
Z:Public Domain
%%score ( 1 2 ) ( 3 4 )
L:1/8
M:4/4
K:F
V:1 treble 
V:2 treble 
V:3 bass 
V:4 bass 
V:1
 [Fc]2 | [Fc]2 [FA]2 [FA]2 F2 | [EG]6 [Fc]2 | [Fd]4 [F=B]4 | [Ec]6 [Fc]2 | %5
 [Fc]2 [FA]2 [FB]2 [Fc]2 | [Fd]6 [FG]2 | [FA]4 [EG]4 | F6 |] %9
V:2
 x2 | x6 F2 | x8 | x8 | x8 | x8 | x8 | x8 | F6 |] %9
V:3
 [F,A,]2 | [F,A,]2 [A,C]2 C2 (A,F,) | [C,C]6 [A,C]2 | [F,A,]4 [G,D]4 | [C,C]6 [F,A,]2 | %5
 [F,A,]2 [_E,C]2 [D,B,]2 [C,A,]2 | [B,,B,]6 [B,,D]2 | [C,C]4 [C,B,]4 | [F,A,]6 |] %9
V:4
 x2 | x6 C2 | x8 | x8 | x8 | x8 | x8 | x8 | x6 |] %9

